style-guide/assets/xd-icons-image-small.svg

<?xml version="1.0" encoding="UTF-8"?>
<svg width="18px" height="18px" viewBox="0 0 18 18" version="1.1" xmlns="http://www.w3.org/2000/svg" xmlns:xlink="http://www.w3.org/1999/xlink">
    <!-- Generator: Sketch 51.3 (57544) - http://www.bohemiancoding.com/sketch -->
    <title>image</title>
    <desc>Created with Sketch.</desc>
    <defs></defs>
    <g id="image" stroke="none" stroke-width="1" fill="none" fill-rule="evenodd">
        <path d="M2.77777778,15.2222222 L2.77777778,10.6124444 L5.44444444,7.94577778 L9.79377778,12.2951111 C10.1271111,12.6284444 10.7173333,12.6284444 11.0506667,12.2951111 L13.2666667,10.0791111 L15.2222222,12.0346667 L15.2222222,15.2222222 L2.77777778,15.2222222 Z M15.2222222,2.77777778 L15.2222222,9.52088889 L13.8951111,8.19377778 C13.5617778,7.86044444 12.9715556,7.86044444 12.6382222,8.19377778 L10.4222222,10.4097778 L6.07288889,6.06044444 C5.73955556,5.72711111 5.14933333,5.72711111 4.816,6.06044444 L2.77777778,8.09866667 L2.77777778,2.77777778 L15.2222222,2.77777778 Z M16.1111111,1 L1.88888889,1 C1.39822222,1 1,1.39822222 1,1.88888889 L1,16.1111111 C1,16.6026667 1.39822222,17 1.88888889,17 L16.1111111,17 C16.6017778,17 17,16.6026667 17,16.1111111 L17,1.88888889 C17,1.39822222 16.6017778,1 16.1111111,1 Z M10.3332444,7.2224 C11.0696241,7.2224 11.6665778,6.62544633 11.6665778,5.88906667 C11.6665778,5.152687 11.0696241,4.55573333 10.3332444,4.55573333 C9.59686478,4.55573333 8.99991111,5.152687 8.99991111,5.88906667 C8.99991111,6.62544633 9.59686478,7.2224 10.3332444,7.2224 Z" id="Fill-3" fill="#000000"></path>
    </g>
</svg>

<svg viewBox="0 0 18 18" xmlns="http://www.w3.org/2000/svg">
  <path d="M2.778 15.222v-4.61l2.666-2.666 4.35 4.35a.915.915 0 0 0 1.257 0l2.216-2.217 1.955 1.956v3.187H2.778zM15.222 2.778V9.52l-1.327-1.327a.915.915 0 0 0-1.257 0l-2.216 2.216-4.35-4.35a.915.915 0 0 0-1.256 0L2.778 8.1V2.778h12.444zM16.112 1H1.888A.89.89 0 0 0 1 1.889V16.11c0 .492.398.889.889.889H16.11c.49 0 .889-.397.889-.889V1.89A.89.89 0 0 0 16.111 1zm-5.779 6.222a1.333 1.333 0 1 0 0-2.666 1.333 1.333 0 0 0 0 2.666z" fill="#000" fill-rule="evenodd"/>
</svg>
